assets/startdotgg/original.svg

<svg fill="#2e75ba" viewBox="0 0 24 24" xmlns="http://www.w3.org/2000/svg"><path d="m6 0a6 6 0 0 0 -5.998 6v5.252a.75.75 0 0 0 .75.748h4.498a.75.75 0 0 0 .75-.747v-4.504c0-.415.336-.749.748-.749h16.497a.75.75 0 0 0 .749-.748v-4.503a.743.743 0 0 0 -.747-.749zm12.75 12a.75.75 0 0 0 -.75.75v4.5a.75.75 0 0 1 -.747.748h-16.5a.754.754 0 0 0 -.75.751v4.5a.75.75 0 0 0 .75.751h17.247a6 6 0 0 0 5.999-6v-5.25a.75.75 0 0 0 -.75-.75z"/></svg>

<svg xmlns="http://www.w3.org/2000/svg" fill="#2e75ba" viewBox="0 0 24 24"><title>start.gg</title><path d="M6 0A6 6 0 0 0 .002 6v5.252a.75.75 0 0 0 .75.748H5.25a.75.75 0 0 0 .75-.747V6.749C6 6.334 6.336 6 6.748 6h16.497a.75.75 0 0 0 .749-.748V.749A.743.743 0 0 0 23.247 0zm12.75 12a.75.75 0 0 0-.75.75v4.5a.75.75 0 0 1-.747.748H.753a.754.754 0 0 0-.75.751v4.5a.75.75 0 0 0 .75.751H18a6 6 0 0 0 5.999-6v-5.25a.75.75 0 0 0-.75-.75z"/></svg>
